X: 240
T:The Four Courts
D:Tulla Ceili Band 50 years/Maple Leaf
M:C|
L:1/8
K:Dmix
AD~D2 ADBD|AD~D2 EFGB|AD~D2 AD~D2 | E2cE G2FG|
AD~D2 ADBD|AD~D2 G2FG |AD~D2 AGFG |AdcA G2 FG||
EEcE dEcE |EEcE G2FG | EEcE dEcE |AdcA G2 FG|
EEcE dEcE |EEcE G2FG | Ad d2 dcAG |AdcA G2 FG||
~A3 d ~B3 d |ABAF G2FG|~A3 d ~B3 d |GB~B2 GBdB|
~A3 d ~B3 d |ABAF G2FG| Ad ~d2 dcAG |AdcA G2 FG|]
